X: 24
T: Lark In The Morning, The
Z: Finnbarr
S: https://thesession.org/tunes/62#setting49529
R: jig
M: 6/8
L: 1/8
K: Dmaj
|:AGA AGA|BdB BdB|AGA AGA|fed edB|
AGA AGA|BdB BdB|def afe|dBB B3:|
|:def afa|baf afe|def afe|dBB B3|
def afa|baf afd|g3 f3|edB B2e:|
|:d2f ffe|ffe ffe|d2f fff|edB B2e|
d2f ffe|ffe ffe|g3 f3|edB B3:|
|:Add fdd|edd fdd|Add fdd|edB B3|
Add fdd|edd dfdd|g3 f3|edB B3:|

